wp-content/themes/sd-accesslasers/public/images/product/icons/sheet.svg

<?xml version="1.0" encoding="UTF-8"?>
<svg width="20px" height="20px" viewBox="0 0 20 20" version="1.1" xmlns="http://www.w3.org/2000/svg" xmlns:xlink="http://www.w3.org/1999/xlink">
    <!-- Generator: Sketch 55 (78076) - https://sketchapp.com -->
    <title>Data sheet</title>
    <desc>Created with Sketch.</desc>
    <g id="Product" stroke="none" stroke-width="1" fill="none" fill-rule="evenodd">
        <g id="AL_Product-Copy" transform="translate(-1311.000000, -776.000000)" fill="currentColor" fill-rule="nonzero">
            <g id="Hero" transform="translate(149.000000, 28.000000)">
                <g id="Product" transform="translate(0.000000, 104.000000)">
                    <g id="Content" transform="translate(975.000000, 122.000000)">
                        <g id="3" transform="translate(0.000000, 458.000000)">
                            <g id="Downloads-Copy" transform="translate(13.000000, 64.000000)">
                                <g id="2" transform="translate(178.000000, 0.000000)">
                                    <g id="ebook" transform="translate(0.000000, 2.000000)">
                                        <path d="M7.27659574,10.4413125 C7.27659574,10.096125 6.99082979,9.8163125 6.63829787,9.8163125 L3.19148936,9.8163125 C2.83895745,9.8163125 2.55319149,10.096125 2.55319149,10.4413125 C2.55319149,10.7865 2.83895745,11.0663125 3.19148936,11.0663125 L6.63829787,11.0663125 C6.99082979,11.0663125 7.27659574,10.7865 7.27659574,10.4413125 Z" id="Path"></path>
                                        <ellipse id="Oval" cx="6" cy="13.1600625" rx="1" ry="1"></ellipse>
                                        <path d="M11.3617021,11.0038125 C11.714234,11.0038125 12,10.724 12,10.3788125 L12,2.5 C12,1.1215 10.8546383,0 9.44680851,0 L2.55319149,0 C1.1453617,0 0,1.1215 0,2.5 L0,13.5 C0,14.8785 1.1453617,16 2.55319149,16 L9.44680851,16 C10.8546383,16 12,14.8785 12,13.5 C12,13.1548125 11.714234,12.875 11.3617021,12.875 C11.0091702,12.875 10.7234043,13.1548125 10.7234043,13.5 C10.7234043,14.18925 10.1507234,14.75 9.44680851,14.75 L2.55319149,14.75 C1.8492766,14.75 1.27659574,14.18925 1.27659574,13.5 L1.27659574,2.5 C1.27659574,1.81075 1.8492766,1.25 2.55319149,1.25 L9.44680851,1.25 C10.1507234,1.25 10.7234043,1.81075 10.7234043,2.5 L10.7234043,10.3788125 C10.7234043,10.724 11.0091702,11.0038125 11.3617021,11.0038125 Z" id="Path"></path>
                                        <path d="M9.44680851,8.0038125 C9.44680851,7.658625 9.16104255,7.3788125 8.80851064,7.3788125 L3.19148936,7.3788125 C2.83895745,7.3788125 2.55319149,7.658625 2.55319149,8.0038125 C2.55319149,8.349 2.83895745,8.6288125 3.19148936,8.6288125 L8.80851064,8.6288125 C9.16104255,8.6288125 9.44680851,8.349 9.44680851,8.0038125 Z" id="Path"></path>
                                        <path d="M8.80851064,2.5038125 L3.19148936,2.5038125 C2.83895745,2.5038125 2.55319149,2.783625 2.55319149,3.1288125 C2.55319149,3.474 2.83895745,3.7538125 3.19148936,3.7538125 L8.80851064,3.7538125 C9.16104255,3.7538125 9.44680851,3.474 9.44680851,3.1288125 C9.44680851,2.783625 9.16104255,2.5038125 8.80851064,2.5038125 Z" id="Path"></path>
                                        <path d="M8.80851064,4.9413125 L3.19148936,4.9413125 C2.83895745,4.9413125 2.55319149,5.221125 2.55319149,5.5663125 C2.55319149,5.9115 2.83895745,6.1913125 3.19148936,6.1913125 L8.80851064,6.1913125 C9.16104255,6.1913125 9.44680851,5.9115 9.44680851,5.5663125 C9.44680851,5.221125 9.16104255,4.9413125 8.80851064,4.9413125 Z" id="Path"></path>
                                    </g>
                                </g>
                            </g>
                        </g>
                    </g>
                </g>
            </g>
        </g>
    </g>
</svg>

<svg width="20" height="20" viewBox="0 0 20 20" version="1.1" xmlns="http://www.w3.org/2000/svg"><g id="Product" stroke="none" stroke-width="1" fill="none" fill-rule="evenodd"><g id="AL_Product-Copy" transform="translate(-1311 -776)" fill="currentColor" fill-rule="nonzero"><g id="Hero" transform="translate(149 28)"><g id="Product" transform="translate(0 104)"><g id="Content" transform="translate(975 122)"><g id="3" transform="translate(0 458)"><g id="Downloads-Copy" transform="translate(13 64)"><g id="2" transform="translate(178)"><g id="ebook" transform="translate(0 2)"><path d="M7.277 10.441a.632.632 0 0 0-.639-.625H3.191a.632.632 0 0 0-.638.625c0 .345.286.625.638.625h3.447c.353 0 .639-.28.639-.625z" id="Path"/><ellipse id="Oval" cx="6" cy="13.16" rx="1" ry="1"/><path d="M11.362 11.004c.352 0 .638-.28.638-.625V2.5C12 1.121 10.855 0 9.447 0H2.553C1.145 0 0 1.121 0 2.5v11C0 14.879 1.145 16 2.553 16h6.894C10.855 16 12 14.879 12 13.5a.632.632 0 0 0-.638-.625.632.632 0 0 0-.639.625c0 .69-.572 1.25-1.276 1.25H2.553c-.704 0-1.276-.56-1.276-1.25v-11c0-.69.572-1.25 1.276-1.25h6.894c.704 0 1.276.56 1.276 1.25v7.879c0 .345.286.625.639.625z" id="Path"/><path d="M9.447 8.004a.632.632 0 0 0-.638-.625H3.19a.632.632 0 0 0-.638.625c0 .345.286.625.638.625h5.62c.352 0 .638-.28.638-.625zm-.638-5.5H3.19a.632.632 0 0 0-.638.625c0 .345.286.625.638.625h5.62c.352 0 .638-.28.638-.625a.632.632 0 0 0-.638-.625zm0 2.437H3.19a.632.632 0 0 0-.638.625c0 .346.286.625.638.625h5.62c.352 0 .638-.28.638-.625a.632.632 0 0 0-.638-.625z" id="Path"/></g></g></g></g></g></g></g></g></g></svg>
